packages/sources/icons/src/vitamix/messenger-line.svg

<svg width="16" height="16" viewBox="0 0 16 16" xmlns="http://www.w3.org/2000/svg"><path fill-rule="evenodd" clip-rule="evenodd" d="M8.00004 1.33334C11.756 1.33334 14.6667 4.08468 14.6667 7.80001C14.6667 11.5153 11.756 14.2667 8.00004 14.2667C7.34813 14.2684 6.69897 14.1822 6.07004 14.0107C5.95191 13.9782 5.8262 13.9874 5.71404 14.0367L4.39137 14.6207C4.2291 14.6924 4.04178 14.6787 3.89164 14.5842C3.7415 14.4897 3.64819 14.3267 3.64271 14.1493L3.60604 12.9627C3.60119 12.8169 3.53658 12.6794 3.42737 12.5827C2.13004 11.4233 1.33337 9.74468 1.33337 7.80001C1.33337 4.08468 4.24471 1.33334 8.00004 1.33334ZM5.17604 12.8167C5.56937 12.6433 6.00937 12.6107 6.42137 12.724C6.93471 12.864 7.46471 12.9347 8.00004 12.9333C11.0567 12.9333 13.3334 10.742 13.3334 7.80001C13.3334 4.85801 11.0567 2.66668 8.00004 2.66668C4.94337 2.66668 2.66671 4.85801 2.66671 7.80001C2.66671 9.31334 3.26404 10.648 4.31071 11.584C4.69505 11.9244 4.9222 12.4082 4.93871 12.9213L5.17604 12.8167ZM5.95464 6.58468L3.99664 9.69135C3.80864 9.99001 4.17531 10.3253 4.45598 10.1127L6.55931 8.51601C6.70194 8.40834 6.89868 8.40834 7.04131 8.51601L8.59864 9.68268C8.82211 9.8505 9.1056 9.91716 9.38044 9.8665C9.65527 9.81584 9.89637 9.65248 10.0453 9.41601L12.0033 6.30935C12.1913 6.01068 11.8246 5.67468 11.544 5.88735L9.44064 7.48468C9.29801 7.59235 9.10127 7.59235 8.95864 7.48468L7.40131 6.31801C7.17784 6.15019 6.89435 6.08353 6.61951 6.13419C6.34468 6.18485 6.10358 6.34821 5.95464 6.58468Z"/></svg>

<svg width="16" height="16" xmlns="http://www.w3.org/2000/svg"><path fill-rule="evenodd" clip-rule="evenodd" d="M8 1.333c3.756 0 6.667 2.752 6.667 6.467S11.756 14.267 8 14.267a7.264 7.264 0 0 1-1.93-.256.533.533 0 0 0-.356.026l-1.323.584a.533.533 0 0 1-.748-.472l-.037-1.186a.531.531 0 0 0-.179-.38C2.13 11.423 1.333 9.745 1.333 7.8c0-3.715 2.912-6.467 6.667-6.467ZM5.176 12.817a1.863 1.863 0 0 1 1.245-.093c.514.14 1.044.21 1.579.21 3.057 0 5.333-2.192 5.333-5.134S11.057 2.667 8 2.667c-3.057 0-5.333 2.191-5.333 5.133 0 1.513.597 2.848 1.644 3.784.384.34.611.824.628 1.337l.237-.104Zm.779-6.232L3.997 9.69c-.188.299.178.634.459.422l2.103-1.597a.4.4 0 0 1 .482 0L8.6 9.683a1 1 0 0 0 1.446-.267l1.958-3.107c.188-.298-.178-.634-.459-.422L9.441 7.485a.4.4 0 0 1-.482 0L7.4 6.318a1 1 0 0 0-1.446.267Z"/></svg>
